icon/fa/plant-wilt.svg

<svg xmlns="http://www.w3.org/2000/svg" viewBox="0 0 512 512"><!--! Font Awesome Free 6.1.2 by @fontawesome - https://fontawesome.com License - https://fontawesome.com/license/free (Icons: CC BY 4.0, Fonts: SIL OFL 1.1, Code: MIT License) Copyright 2022 Fonticons, Inc.--><path d="M288 512h-64V248c0-30.9-25.1-56-56-56s-56 25.1-56 56v12.1c29.3 10.8 48 35.4 48 71 0 28-35.8 79.4-80 116.9-44.17-37.5-80-87.6-80-116.9 0-35.6 18.67-60.2 48-71V248c0-66.3 53.7-120 120-120 20.2 0 39.3 5 56 13.8V120C224 53.73 277.7 0 344 0s120 53.73 120 120v12.1c29.3 10.8 48 35.4 48 71 0 28-35.8 79.4-80 116.9-44.2-37.5-80-87.6-80-116.9 0-35.6 18.7-60.2 48-71V120c0-30.93-25.1-56-56-56s-56 25.07-56 56v392z"/></svg>

<svg xmlns="http://www.w3.org/2000/svg" viewBox="0 0 512 512" height="1em" width="1em">
<!--! Font Awesome Free 6.1.2 by @fontawesome - https://fontawesome.com License - https://fontawesome.com/license/free (Icons: CC BY 4.0, Fonts: SIL OFL 1.1, Code: MIT License) Copyright 2022 Fonticons, Inc.-->
  <path d="M288 512H224V248C224 217.1 198.9 192 168 192C137.1 192 112 217.1 112 248V260.1C141.3 270.9 160 295.5 160 331.1C160 359.1 124.2 410.5 80 448C35.83 410.5 0 360.4 0 331.1C0 295.5 18.67 270.9 48 260.1V248C48 181.7 101.7 128 168 128C188.2 128 207.3 133 224 141.8V120C224 53.73 277.7 0 344 0C410.3 0 464 53.73 464 120V132.1C493.3 142.9 512 167.5 512 203.1C512 231.1 476.2 282.5 432 320C387.8 282.5 352 232.4 352 203.1C352 167.5 370.7 142.9 400 132.1V120C400 89.07 374.9 64 344 64C313.1 64 288 89.07 288 120V512z"/>
</svg>
